X: 11
T: Ship in Full Sail
I: Ship in Full Sail	J-56	G	jig	Set 45
M: 6/8
R: jig
K: G
"G"DGG BGG| dGG Bdd| "C"ege "G"dBG| "Am"ABA "D"AGE|
"G"DGG B3| "G"dGG Bdd| "C"ege "G"dBG| "D"ABA "G"G3 :|
|:"G"dgg bgg| "D"aga "Em"bge| "G"dgg bgg| "D"a2a age|
"G"dgg bgg| "D"aga "Em"bgd| "C"ege "G"dBG| "D"ABA "G"G3 :|
%%text Roaring Jelly J-56

%%vskip 6pt

